src/icons/logos/solid.svg

<svg width="682" height="220" viewBox="0 0 682 220" fill="none" xmlns="http://www.w3.org/2000/svg">
<g clip-path="url(#clip0_463_519)">
<path d="M4.95809 136.662C11.075 142.619 19.2211 146.038 27.7572 146.232C37.3273 146.232 45.2084 140.603 45.2084 131.033C45.2084 109.078 1.58043 114.426 1.58043 87.4046C1.58043 74.7384 12.8393 64.0425 28.8831 64.0425C37.4604 63.7874 45.8132 66.8065 52.2452 72.4866L48.0232 79.8048C42.777 75.0325 35.9741 72.3314 28.8831 72.2051C17.6243 72.2051 10.5875 79.5234 10.306 87.1231C10.306 107.952 53.934 102.041 53.934 130.751C53.934 143.699 43.8011 154.395 27.4758 154.395C22.3535 154.496 17.2645 153.55 12.5211 151.614C7.77772 149.677 3.47997 146.793 -0.108398 143.136L4.95809 136.662ZM143.16 64.6054C149.032 64.5789 154.85 65.7205 160.276 67.9638C165.702 70.207 170.627 73.507 174.766 77.6718C178.905 81.8366 182.174 86.783 184.382 92.2231C186.591 97.6631 187.696 103.488 187.633 109.359C187.707 115.274 186.616 121.145 184.421 126.637C182.226 132.129 178.971 137.136 174.841 141.37C170.712 145.604 165.788 148.984 160.352 151.315C154.916 153.646 149.075 154.884 143.16 154.958H142.879C136.965 154.884 131.123 153.646 125.687 151.315C120.251 148.984 115.328 145.604 111.198 141.37C107.068 137.136 103.813 132.129 101.618 126.637C99.4234 121.145 98.3321 115.274 98.4065 109.359V109.078C98.38 103.206 99.5216 97.3885 101.765 91.9625C104.008 86.5364 107.308 81.6108 111.473 77.4722C115.638 73.3336 120.584 70.0647 126.024 67.8557C131.464 65.6468 137.289 64.5419 143.16 64.6054V64.6054ZM142.879 147.076C152.579 146.855 161.795 142.79 168.498 135.775C175.202 128.76 178.845 119.369 178.626 109.669V109.359C178.626 88.5304 162.863 72.4866 143.16 72.4866C138.396 72.4929 133.681 73.45 129.292 75.3017C124.902 77.1534 120.927 79.8625 117.598 83.2703C114.268 86.6781 111.653 90.716 109.904 95.1475C108.155 99.579 107.309 104.315 107.414 109.078C107.414 130.47 123.176 146.795 142.879 147.076ZM238.298 66.2942H246.742L246.46 145.951H286.992V153.55H237.735L238.298 66.2942ZM333.716 66.5757H342.16L341.879 154.113H333.435L333.716 66.5757ZM399.017 66.5757H427.165C453.341 66.5757 471.074 82.6196 471.074 110.485C471.074 138.351 453.341 154.113 427.165 154.113H399.017V66.5757ZM426.039 146.513C447.43 146.513 461.786 133.847 462.067 110.485C462.349 87.1231 447.712 74.4569 426.32 74.4569H407.462L407.18 146.513H426.039ZM544.735 154.113C552.016 154.337 559.113 151.804 564.607 147.02C567.335 144.485 569.471 141.381 570.862 137.926C572.254 134.472 572.866 130.754 572.657 127.036V67.6171H555.065V125.741C555.263 128.815 554.253 131.845 552.25 134.185C551.239 135.211 550.02 136.01 548.676 136.53C547.332 137.049 545.892 137.276 544.454 137.197C538.937 137.197 534.912 133.96 532.378 127.486L517.517 135.789C522.396 148.005 531.487 154.113 544.791 154.113H544.735ZM650.174 154.31C659.941 154.31 667.597 151.89 673.086 147.02C675.791 144.645 677.934 141.698 679.36 138.392C680.787 135.087 681.46 131.506 681.333 127.908C681.445 124.889 680.869 121.884 679.65 119.119C678.431 116.354 676.601 113.903 674.296 111.949C669.567 107.896 661.996 104.405 651.581 101.422C647.823 100.576 644.242 99.0803 640.998 97.0027C640.026 96.3249 639.235 95.4185 638.695 94.3633C638.155 93.308 637.883 92.1363 637.902 90.9511C637.868 89.7239 638.132 88.5068 638.671 87.4038C639.21 86.3009 640.009 85.345 640.998 84.618C643.38 82.9179 646.267 82.0746 649.189 82.2255C652.641 81.9929 656.075 82.8883 658.973 84.7768C661.872 86.6654 664.079 89.4447 665.261 92.6962L679.813 84.7306C677.553 79.072 673.538 74.2873 668.357 71.0792C662.791 67.7899 656.412 66.1318 649.949 66.2942C642.299 66.0857 634.838 68.6894 628.979 73.6125C626.2 75.8014 623.968 78.6064 622.458 81.8059C620.949 85.0054 620.204 88.512 620.282 92.0488C620.21 94.9906 620.753 97.915 621.878 100.634C623.002 103.354 624.683 105.808 626.812 107.839C630.734 111.78 637.649 115.242 647.556 118.226C652.027 119.295 656.315 121.021 660.279 123.348C661.319 123.932 662.181 124.788 662.771 125.824C663.362 126.861 663.658 128.039 663.628 129.231C663.621 130.533 663.285 131.813 662.65 132.949C662.015 134.086 661.102 135.044 659.997 135.733C657.241 137.529 653.996 138.424 650.709 138.295C646.778 138.39 642.908 137.308 639.597 135.186C636.287 133.064 633.687 130 632.132 126.388L616.932 134.241C619.433 140.392 623.87 145.559 629.57 148.962C635.803 152.637 642.941 154.49 650.174 154.31" fill="black"/>
</g>
<defs>
<clipPath id="clip0_463_519">
<rect width="682" height="220" fill="white"/>
</clipPath>
</defs>
</svg>

<svg xmlns="http://www.w3.org/2000/svg" width="682" height="220" fill="none">
    <g clip-path="url(#a)">
        <path fill="#000"
            d="M4.958 136.662a33.778 33.778 0 0 0 22.8 9.57c9.57 0 17.45-5.629 17.45-15.199 0-21.955-43.628-16.607-43.628-43.628 0-12.667 11.26-23.362 27.303-23.362a33.777 33.777 0 0 1 23.362 8.444l-4.222 7.318a29.217 29.217 0 0 0-19.14-7.6c-11.259 0-18.296 7.318-18.577 14.918 0 20.829 43.628 14.918 43.628 43.628 0 12.948-10.133 23.644-26.458 23.644A37.612 37.612 0 0 1-.108 143.136l5.066-6.474ZM143.16 64.605a44.274 44.274 0 0 1 44.473 44.754 45.036 45.036 0 0 1-44.473 45.599h-.281a45.035 45.035 0 0 1-44.472-45.599v-.281a44.27 44.27 0 0 1 13.066-31.606 44.278 44.278 0 0 1 31.687-12.867Zm-.281 82.471a36.588 36.588 0 0 0 35.747-37.407v-.31c0-20.829-15.763-36.872-35.466-36.872a35.799 35.799 0 0 0-33.256 22.66 35.796 35.796 0 0 0-2.49 13.931c0 21.392 15.762 37.717 35.465 37.998Zm95.419-80.782h8.444l-.282 79.657h40.532v7.599h-49.257l.563-87.256Zm95.418.282h8.444l-.281 87.537h-8.444l.281-87.537Zm65.301 0h28.148c26.176 0 43.909 16.044 43.909 43.909 0 27.866-17.733 43.628-43.909 43.628h-28.148V66.576Zm27.022 79.937c21.391 0 35.747-12.666 36.028-36.028.282-23.362-14.355-36.028-35.747-36.028h-18.858l-.282 72.056h18.859Zm118.696 7.6a28.906 28.906 0 0 0 19.872-7.093 25.326 25.326 0 0 0 8.05-19.984V67.617h-17.592v58.124a11.817 11.817 0 0 1-2.815 8.444 10.169 10.169 0 0 1-7.796 3.012c-5.517 0-9.542-3.237-12.076-9.711l-14.861 8.303c4.879 12.216 13.97 18.324 27.274 18.324h-.056Zm105.439.197c9.767 0 17.423-2.42 22.912-7.29a24.285 24.285 0 0 0 8.247-19.112 19.953 19.953 0 0 0-7.037-15.959c-4.729-4.053-12.3-7.544-22.715-10.527a33.103 33.103 0 0 1-10.583-4.42 7.238 7.238 0 0 1-3.096-6.05 7.6 7.6 0 0 1 3.096-6.334 12.95 12.95 0 0 1 8.191-2.392 15.956 15.956 0 0 1 16.072 10.47l14.552-7.965a28.481 28.481 0 0 0-11.456-13.652 34.48 34.48 0 0 0-18.408-4.785 31.273 31.273 0 0 0-20.97 7.319 22.836 22.836 0 0 0-8.697 18.436 21.104 21.104 0 0 0 6.53 15.79c3.922 3.941 10.837 7.403 20.744 10.387a46.485 46.485 0 0 1 12.723 5.122 6.57 6.57 0 0 1 2.492 2.476 6.548 6.548 0 0 1 .857 3.407 7.706 7.706 0 0 1-3.631 6.502 15.87 15.87 0 0 1-9.288 2.562 19.708 19.708 0 0 1-18.577-11.907l-15.2 7.853a30.544 30.544 0 0 0 12.638 14.721 38.672 38.672 0 0 0 20.604 5.348" />
    </g>
    <defs>
        <clipPath id="a">
            <path fill="#fff" d="M0 0h682v220H0z" />
        </clipPath>
    </defs>
</svg>
